X:1
T:Title
T:Transcription - Theme from Survivors Suite
T:Keith Jarret
C:Composer
%%score { 1 | 2 }
L:1/8
Q:1/4=80
M:4/4
K:C
V:1 treble nm="Piano" snm="Pno."
V:2 bass 
V:1
|: z G,CA BGce | [A,CF]6 ^FD | AGG^F G3 D | F2 EB, C3 D | F2 EB, ^CEA^c | D3 B, D2 ^C^G, | %6
 A,_B,_Ec d_B_ec | _A2 GD _EG !fermata!_A,2 | C_EGB C4 :| %9
V:2
|: z G,,-[G,,-D,G,][G,,D,F,] [G,,B,]2 [C,G,E]2 | F,,6 [D,,A,]2 | [G,,D,B,]4 G,,4 | %3
 [D,B,]2 [E,^G,]2 [A,,A,]2 z2 | [B,,A,]2 [E,^G,]2 [A,,A,]2 [^C,E]2 | %5
 [D,^F,A,]4 [B,,F,^G,]2 [^C,=F,]2 | [^F,,E,] z [G,,_E,_B,]2 [_B,,F,B,]2 [C,G,B,]2 | %7
 [_A,,_E,C]2 [G,,F,B,]2 [C,G,C]2 [A,,E,]2 | [_A,,_E,]2 [G,,F,]2 [_D,,_D,F,]4 :| %9

